app/img/icons/servises-icon-1-mb.svg

<svg width="44" height="44" viewBox="0 0 44 44" fill="none" xmlns="http://www.w3.org/2000/svg">
<path d="M16.3174 19.3359C17.0764 19.3359 17.6924 18.7199 17.6924 17.9609V12.5984C17.6924 10.2011 19.6428 8.25 22.0401 8.25C24.4374 8.25 26.3886 10.2011 26.3886 12.5984V17.9609C26.3886 18.7199 27.0039 19.3359 27.7636 19.3359C28.5226 19.3359 29.1386 18.7199 29.1386 17.9609V12.5984C29.1393 8.6845 25.9548 5.5 22.0401 5.5C18.1269 5.5 14.9424 8.6845 14.9424 12.5984V17.9609C14.9424 18.7199 15.5584 19.3359 16.3174 19.3359Z" fill="url(#paint0_linear)"/>
<path d="M37.8127 16.2463H30.5142V17.961C30.5142 19.4776 29.2808 20.711 27.7642 20.711C26.2475 20.711 25.0142 19.4776 25.0142 17.961V16.2463H19.068V17.961C19.068 19.4776 17.8346 20.711 16.318 20.711C14.8014 20.711 13.568 19.4776 13.568 17.961V16.2463H6.18766C5.80816 16.2463 5.57373 16.5454 5.66379 16.9139L10.4749 36.5056C10.765 37.607 11.9242 38.5 13.0627 38.5H30.9377C32.0775 38.5 33.2353 37.607 33.5268 36.5056L38.3365 16.9139C38.4266 16.5447 38.1928 16.2463 37.8127 16.2463Z" fill="url(#paint1_linear)"/>
<path d="M19.6626 23.65C19.6626 23.1182 20.0933 22.6875 20.6251 22.6875C21.1568 22.6875 21.5876 23.1182 21.5876 23.65V28.4281L21.5876 27.5C21.5876 26.9682 22.0183 26.5375 22.5501 26.5375C23.0819 26.5375 23.5126 26.9682 23.5126 27.5V28.6526C23.5213 28.1285 23.9488 27.0188 24.475 27.0188C25.0065 27.0188 25.4375 27.4497 25.4375 27.9812C25.4375 27.9812 25.4657 28.697 25.529 28.7398C25.6831 28.4134 26.0151 27.5 26.4 27.5C26.9316 27.5 27.3625 27.9309 27.3625 28.4625V33.275C27.3625 34.3381 26.5006 35.2 25.4375 35.2H22.2199C21.1987 35.2 20.2193 34.7943 19.4974 34.0724L17.9781 32.5531L15.8125 31.5839C15.816 30.6648 16.5361 30.3875 17.2562 30.3875C17.8766 30.3875 18.4344 30.4842 19.6625 31.1094L19.6626 23.65Z" fill="white"/>
<defs>
<linearGradient id="paint0_linear" x1="22.0405" y1="5.5" x2="22.0405" y2="19.3359" gradientUnits="userSpaceOnUse">
<stop stop-color="#EF8080"/>
<stop offset="1" stop-color="#F0145A"/>
</linearGradient>
<linearGradient id="paint1_linear" x1="22.0002" y1="16.2463" x2="22.0002" y2="38.5" gradientUnits="userSpaceOnUse">
<stop stop-color="#EF8080"/>
<stop offset="1" stop-color="#F0145A"/>
</linearGradient>
</defs>
</svg>

<svg xmlns="http://www.w3.org/2000/svg" width="44" height="44" fill="none" xmlns:v="https://vecta.io/nano"><path d="M16.317 19.336c.759 0 1.375-.616 1.375-1.375v-5.362c0-2.397 1.95-4.348 4.348-4.348s4.349 1.951 4.349 4.348v5.362c0 .759.615 1.375 1.375 1.375s1.375-.616 1.375-1.375v-5.362A7.11 7.11 0 0 0 22.04 5.5a7.11 7.11 0 0 0-7.098 7.098v5.362c0 .759.616 1.375 1.375 1.375z" fill="url(#A)"/><path d="M37.813 16.246h-7.299v1.715c0 1.517-1.233 2.75-2.75 2.75s-2.75-1.233-2.75-2.75v-1.715h-5.946v1.715c0 1.517-1.233 2.75-2.75 2.75s-2.75-1.233-2.75-2.75v-1.715h-7.38a.51.51 0 0 0-.524.668l4.811 19.592c.29 1.101 1.449 1.994 2.588 1.994h17.875c1.14 0 2.298-.893 2.589-1.994l4.81-19.592a.51.51 0 0 0-.524-.668z" fill="url(#B)"/><path d="M19.663 23.65a.96.96 0 0 1 .962-.962c.532 0 .962.431.962.962v4.778-.928a.96.96 0 1 1 1.925 0v1.153c.009-.524.436-1.634.962-1.634.531 0 .962.431.962.962 0 0 .028.716.091.759.154-.326.486-1.24.871-1.24.532 0 .963.431.963.962v4.813c0 1.063-.862 1.925-1.925 1.925H22.22a3.85 3.85 0 0 1-2.722-1.128l-1.519-1.519-2.166-.969c.004-.919.724-1.196 1.444-1.196.62 0 1.178.097 2.406.722V23.65z" fill="#fff"/><defs><linearGradient id="A" x1="22.041" y1="5.5" x2="22.041" y2="19.336" gradientUnits="userSpaceOnUse"><stop stop-color="#ef8080"/><stop offset="1" stop-color="#f0145a"/></linearGradient><linearGradient id="B" x1="22" y1="16.246" x2="22" y2="38.5" gradientUnits="userSpaceOnUse"><stop stop-color="#ef8080"/><stop offset="1" stop-color="#f0145a"/></linearGradient></defs></svg>
